dist/img/svg/ic_chevron.svg

<svg width="20" height="20" viewBox="0 0 20 20" fill="none" xmlns="http://www.w3.org/2000/svg">
<path d="M9.54789 14.1796C9.69975 14.1693 9.84401 14.1039 9.95787 13.9938L16.7721 7.30266C16.9076 7.17042 16.9893 6.98463 16.999 6.78665C17.0089 6.58855 16.9459 6.39435 16.8242 6.24692C16.7026 6.09951 16.5321 6.01108 16.3505 6.00097C16.169 5.99086 15.9912 6.06009 15.8564 6.19324L9.5 12.437L3.14356 6.19324C3.0088 6.06009 2.83104 5.99086 2.64946 6.00097C2.46788 6.01108 2.29737 6.09951 2.17581 6.24692C2.05412 6.39433 1.99114 6.58854 2.00101 6.78665C2.01075 6.98463 2.09239 7.1704 2.22785 7.30266L9.04213 13.9938C9.18057 14.1281 9.36322 14.1953 9.54788 14.1796H9.54789Z" fill="#202125"/>
</svg>

<svg width="20" height="20" viewBox="0 0 20 20" fill="none" xmlns="http://www.w3.org/2000/svg"><path d="M9.548 14.18a.654.654 0 00.41-.186l6.814-6.691A.774.774 0 0017 6.787a.788.788 0 00-.175-.54A.663.663 0 0016.35 6a.651.651 0 00-.494.192L9.5 12.437 3.144 6.193a.65.65 0 00-.495-.192.663.663 0 00-.473.246.788.788 0 00-.175.54c.01.198.091.383.227.516l6.814 6.69a.647.647 0 00.506.187z" fill="#202125"/></svg>
